build/img/category2__img_06.svg

<svg width="64" height="64" viewBox="0 0 64 64" fill="none" xmlns="http://www.w3.org/2000/svg">
<g opacity="0.4">
<path d="M6.16113 33.0646V6.16138H22.7418V33.0646H6.16113Z" stroke="#333333" stroke-width="2"/>
<path d="M28.9032 18.5806V0H0V46.4516V48.5161V55.7419V57.8064V64H64V57.8064V55.7419V48.5161V46.4516V18.5806H28.9032ZM61.9355 20.6452V25.8064H28.9032V20.6452H61.9355ZM28.9032 27.871H44.3871V46.4516H28.9032V27.871ZM26.8387 2.06452V18.5806V37.1613H2.06452V2.06452H26.8387ZM2.06452 39.2258H26.8387V46.4516H2.06452V39.2258ZM2.06452 48.5161H26.8387V55.7419H2.06452V48.5161ZM61.9355 61.9355H2.06452V57.8064H61.9355V61.9355ZM61.9355 55.7419H28.9032V48.5161H61.9355V55.7419ZM46.4516 46.4516V27.871H61.9355V46.4516H46.4516Z" fill="#333333"/>
<path d="M17.548 51.6128H11.3545V53.6773H17.548V51.6128Z" fill="#333333"/>
<path d="M17.548 42.3225H11.3545V44.387H17.548V42.3225Z" fill="#333333"/>
<path d="M48.5158 51.6128H42.3223V53.6773H48.5158V51.6128Z" fill="#333333"/>
<path d="M48.5158 22.7097H42.3223V24.7742H48.5158V22.7097Z" fill="#333333"/>
<path d="M42.3223 34.0645H40.2578V38.1935H42.3223V34.0645Z" fill="#333333"/>
<path d="M50.5811 34.0645H48.5166V38.1935H50.5811V34.0645Z" fill="#333333"/>
</g>
</svg>

<svg width="64" height="64" fill="none" xmlns="http://www.w3.org/2000/svg"><g opacity=".4"><path d="M6.161 33.065V6.16h16.58v26.904H6.162z" stroke="#333" stroke-width="2"/><path d="M28.903 18.58V0H0v64h64V18.581H28.903zm33.032 2.065v5.161H28.904v-5.16h33.032zm-33.032 7.226h15.484v18.58H28.903v-18.58zM26.84 2.065V37.16H2.065V2.065h24.774zM2.065 39.225h24.774v7.227H2.065v-7.226zm0 9.291h24.774v7.226H2.065v-7.226zm59.87 13.42H2.066v-4.13h59.87v4.13zm0-6.194H28.904v-7.226h33.032v7.226zm-15.483-9.29V27.87h15.483v18.58H46.453z" fill="#333"/><path d="M17.548 51.613h-6.193v2.064h6.193v-2.064zm0-9.291h-6.193v2.065h6.193v-2.065zm30.968 9.291h-6.194v2.064h6.194v-2.064zm0-28.903h-6.194v2.064h6.194V22.71zm-6.194 11.355h-2.064v4.129h2.064v-4.13zm8.259 0h-2.064v4.129h2.064v-4.13z" fill="#333"/></g></svg>
